X: 331
T: Francis (Frank) Murray
C: Bert Murray
R: strathspey
B: Bert Murray's "Bon Accord Collection" 1999 p.33
%
N: This tune was written for the composer's father.
Z: 2011 John Chambers <jc:trillian.mit.edu>
M: C
L: 1/8
K: A
uc |\
A<E c>A e>c a>e | (f/g/a) e-<c d<B B>c | A<E c>A e>c a>e |[1 f/g/a e>f c<A A :|
[2 f/g/a e/f/g a<A Ae || a>g f>a g<b e>g | f>e d>f e<a c>e |
d>f B>d c>e A>c | B>e g>f e>g b>g | a>e c>a g>e B>g | f>d A>f e>c a>e |
d>B e>d c<e A>c | B/c/d e/f/d c<A A2 | B/c/d e/f/g a<A A |]

%%sep 2 1 500

